!!!COA:	Josquin des Prez
!!!CDT:	~1450-1521/08/27
!!!OPR:	Missa Une mousse de Biscaye
!!!ONM:	4
!!!OTL:	Sanctus
!!!AGN:	Mass; Sanctus
!!!SCT:	NJE 5.2
!!!SCA:	New Josquin Edition 5.2
!!!voices:	4
!!!voices-OPR:	4
**kern	**kern	**kern	**kern
*staff4	*staff3	*staff2	*staff1
*Ivox	*Ivox	*Ivox	*Ivox
*I"Bassus	*I"Tenor	*I"Altus	*I"Superius
*I'B	*I'T	*I'A	*I'S
*>[A,B,C,D,C]	*>[A,B,C,D,C]	*>[A,B,C,D,C]	*>[A,B,C,D,C]
*>A	*>A	*>A	*>A
*clefF4	*clefGv2	*clefGv2	*clefG2
*k[b-]	*k[b-]	*k[b-]	*k[b-]
*M3/1	*M3/1	*M3/1	*M3/1
*met(O)	*met(O)	*met(O)	*met(O)
=1-	=1-	=1-	=1-
0.r	0.r	2.F/	[0.f
.	.	4G/	.
.	.	2A/	.
.	.	1B-	.
.	.	2A/	.
=2	=2	=2	=2
0.r	0.r	2F/	0f]
.	.	2.B-\	.
.	.	4A/	.
.	.	4G/	.
.	.	4F/	.
.	.	1E	1g
=3	=3	=3	=3
0.r	0.r	2F/	0.a
.	.	1f	.
.	.	4e\	.
.	.	4d\	.
.	.	2c\	.
.	.	2d\	.
=4	=4	=4	=4
0.r	0.r	2G/	0b-
.	.	2.g\	.
.	.	4f\	.
.	.	4e\	.
.	.	4d\	.
.	.	2c\	1a
.	.	2d\	.
=5	=5	=5	=5
0.r	0.r	2B-\	2g/
.	.	2c\	2.a/
.	.	1d	.
.	.	.	4g/
.	.	.	2f/
.	.	2c\	2e/
.	.	2B-\	[2d/
=6	=6	=6	=6
2.D\	0.r	1d	4d/]
.	.	.	4e/
.	.	.	4f/
4E\	.	.	4g/
2F\	.	2c\	2a/
2G\	.	2B-\	1g
1D	.	1A	.
.	.	.	2f#i/
=7	=7	=7	=7
2.E-i\	0.r	2r	1g
.	.	2.G/	.
4D\	.	.	.
2C/	.	.	1r
.	.	4A/	.
2BB-/	.	2B-\	.
1C	.	2A/	2r
.	.	[2c\	[2a/
=8	=8	=8	=8
2AA/	0.r	4c\]	2a/]
.	.	4B-\	.
2.D\	.	4A/	2a/
.	.	4G/	.
.	.	1F	1a
4C/	.	.	.
4BB-/	.	.	.
4AA/	.	.	.
2GG/	.	4G/	[1b-
.	.	4A/	.
[2G\	.	4B-\	.
.	.	4c\	.
=9	=9	=9	=9
2G\]	0.r	2d\	2b-\]
2E\	.	2e\	4a/
.	.	.	4g/
1F	.	2c\	1a
.	.	1d	.
2D\	.	.	2f/
2E-\	.	2B-\	2g/
=10	=10	=10	=10
2C/	0.r	2c\	1a
2F\	.	1d	.
2D\	.	.	2f/
2E-i\	.	2B-\	2g/
2C/	.	2c\	2e/
[2D\	.	2A/	2f/
=11	=11	=11	=11
2D\]	0.r	2B-\	1d
2BB-/	.	1G	.
2E-i\	.	.	2g/
2D\	.	2.A/	2f/
2.F\	.	.	1a
.	.	4B-\	.
.	.	2c\	.
4Eni\	.	.	.
=12	=12	=12	=12
2D\	0.r	2d\	2b-\
2C/	.	2e\	2cc\
1D	.	1f	2a/
.	.	.	1dd
2GG/	.	1g	.
2G\	.	.	2b-\
=13	=13	=13	=13
4A\	0.r	2e\	4cc\
4G\	.	.	4b-\
4F\	.	2.f\	4a/
4E\	.	.	4g/
2D\	.	.	2f/
.	.	4e\	.
2BB-/	.	2d\	1b-
1F	.	1c	.
.	.	.	2a/
=14	=14	=14	=14
2G\	0.r	2B-\	2b-\
2F\	.	2c\	1a
2D\	.	2d\	.
2G\	.	2B-\	1g
1D	.	1A	.
.	.	.	2f#i/
=15	=15	=15	=15
1GG	0.r	2G/	1g
.	.	2B-\	.
2D\	.	2A/	2f/
2E\	.	2G/	2g/
2C/	.	2c\	2e/
2F\	.	2d\	2f/
=16	=16	=16	=16
2E\	0.r	2e\	2g/
2.D\	.	2.f\	2.a/
4E\	.	4e\	4g/
4F\	.	1d	2f/
4G\	.	.	.
1A	.	.	1e
.	.	2c#i\	.
=17	=17	=17	=17
2r	0.F	1d	0d
1D	.	.	.
.	.	2B-\	.
4C/	.	2d\	.
4BB-/	.	.	.
1AA	.	1c	2r
.	.	.	2a/
=18	=18	=18	=18
0GG	0G	1.B-	1.b-
.	.	1d	4a/
.	.	.	4g/
1GG	1G	.	2b-\
.	.	4c\	2g/
.	.	4B-\	.
=19	=19	=19	=19
[0D	1.F	1A	2a/
.	.	.	1f
.	.	1A	.
.	2G/	.	4e/
.	.	.	4d/
2D\]	1A	2D/	2f/
2C/	.	2E/	2e/
=20	=20	=20	=20
1BB-	0B-	2F/	2d/
.	.	1B-	1g
1GG	.	.	.
.	.	4A/	4f/
.	.	4G/	4e/
2D\	1A	2F/	2f/
2C/	.	2c\	2e/
=21	=21	=21	=21
2BB-/	2B-\	2d\	2d/
2F\	2A/	2r	2c/
1G	1B-	2d\	2B-/
.	.	2e\	1b-
1F	1c	1f	.
.	.	.	2a/
=22	=22	=22	=22
1.G	0B-	2r	1b-
.	.	1d	.
.	.	.	2r
4F\	.	2d\	1b-
4E\	.	.	.
4D\	1r	[1d	.
4C/	.	.	.
4BB-/	.	.	2b-\
4AA/	.	.	.
=23	=23	=23	=23
2GG/	0.r	2d\]	2b-\
2AA/	.	2.c\	4cc\
.	.	.	4b-\
2FF/	.	.	4a/
.	.	4B-\	4g/
2GG/	.	2B-\	1g
1D	.	1A	.
.	.	.	2f#i/
=24	=24	=24	=24
0E-i	1.B-	1.G	0g
.	2B-\	4F/	.
.	.	4E/	.
1D	1B-	2.F/	1r
.	.	4G/	.
=25	=25	=25	=25
2C/	0c	2A/	1.a
2.AA/	.	2.c\	.
4BB-/	.	4d\	.
2C/	.	2e\	2a/
2D\	2B-\	2f\	2b-\
2E\	2c\	2e\	2g/
=26	=26	=26	=26
2F\	2A/	2c\	2a/
2BB-/	2B-\	2d\	1g
2E-i\	1c	2G/	.
2C/	.	2e\	1a
1D	2A/	2f\	.
.	2B-\	2d\	2f/
=27	=27	=27	=27
2E\	2G/	2c\	2g/
1D	2A/	1d	1f
.	1B-	.	.
1E	.	1G	1g
.	2G/	.	.
2C/	2A/	2c\	2e/
=28	=28	=28	=28
2D\	2F/	2B-\	2f/
1C	2G/	1c	1e
.	1A	.	.
1D	.	1B-	1f
.	2F/	.	.
2C/	2G/	2c\	2e/
=29	=29	=29	=29
2BB-/	2B-\	2d\	2d/
2C/	1A	2c\	2e/
2D\	.	2F/	2f/
2E-i\	1G	1c	2e/
1D	.	.	1f
.	2F/	2Bni\	.
=30	=30	=30	=30
0C	0G	2.c\	2e/
.	.	.	1g
.	.	8B-/L	.
.	.	8A/J	.
.	.	2.G/	.
.	.	.	4f/
.	.	4A/	4e/
1BB-	1r	1B-	1d
=31	=31	=31	=31
2.AA/	[0.A	1c	2.c/
4BB-/	.	.	4d/
2C/	.	2r	2e/
1D	.	2.F/	1f
.	.	4G/	.
4C/	.	4A/	4e/
4BB-/	.	4B-\	4d/
=32	=32	=32	=32
2AA/	0A]	2c\	2c/
2D\	.	2d\	2f/
2C/	.	2e\	2e/
1D	.	1d	1f
.	1B-	.	.
2E\	.	2G/	2g/
=33	=33	=33	=33
2C/	0A	2c\	2e/
2.D\	.	2F/	2.f/
.	.	1d	.
4E\	.	.	4g/
2F\	.	.	2a/
2G\	1G	2B-\	2d/
2E\	.	2c\	2e/
=34	=34	=34	=34
2D\	2.F/	1d	2f/
1F	.	.	2.a/
.	4G/	.	.
.	2A/	2c\	.
.	.	.	4g/
2BB-/	2B-\	2d\	1f
1C	1G	1c	.
.	.	.	2e/
=35	=35	=35	=35
0D	[0.Fl	2A/	0f
.	.	2.d\	.
.	.	4c\	.
.	.	1B-	.
1D	.	.	1f
.	.	2A/	.
=36	=36	=36	=36
0.BB-l	0.F]	0.B-l	0.dl
!!LO:LB:i:g=z
=37||	=37||	=37||	=37||
*>B	*>B	*>B	*>B
*clefF4	*clefGv2	*clefGv2	*clefG2
*k[b-]	*k[b-]	*k[b-]	*k[b-]
*M2/1	*M2/1	*M2/1	*M2/1
*met(C|)	*met(C|)	*met(C|)	*met(C|)
!!section: Pleni
!!!OMD: Pleni
0r	[0F	2.f\	0r
.	.	4e\	.
.	.	2f\	.
.	.	[2d\	.
=38	=38	=38	=38
1.D	0F_	2d\]	0r
.	.	4c\	.
.	.	4B-\	.
.	.	2.A/	.
4C/	.	.	.
4BB-/	.	4B-\	.
=39	=39	=39	=39
2AA/	0F_	2c\	0r
1BB-	.	1d	.
4AA/	.	4c\	.
4GG/	.	4B-\	.
=40	=40	=40	=40
1BB-	0F]	1d	0r
1AA	.	1c	.
=41	=41	=41	=41
2.GG/	[0G	2.B-\	0r
4AA/	.	4c\	.
2BB-/	.	2d\	.
[2C/	.	[2e-i\	.
=42	=42	=42	=42
4C/]	1G]	4e-\]	0r
4D\	.	4f\	.
2E-i\	.	2g\	.
2D\	1A	2f\	.
2C/	.	2eni\	.
=43	=43	=43	=43
1BB-	[0B-	2d\	0r
.	.	1g	.
2r	.	.	.
[2GG/	.	4f\	.
.	.	4e\	.
=44	=44	=44	=44
4GG/]	0B-]	2.d\	0r
4AA/	.	.	.
4BB-/	.	.	.
4C/	.	4e\	.
2D\	.	2f\	.
2E\	.	2g\	.
=45	=45	=45	=45
2F\	0A	2c\	0r
2.FF/	.	1f	.
4GG/	.	.	.
4AA/	.	4e\	.
4BB-/	.	4d\	.
=46	=46	=46	=46
2C/	1G	2e\	0r
2BB-/	.	2d\	.
2C/	1A	2c\	.
[2D\	.	[2f\	.
=47	=47	=47	=47
2D\]	2F/	2f\]	0r
4C/	1G	4e\	.
4BB-/	.	4d\	.
1C	.	1e	.
.	4F/	.	.
.	4E/	.	.
=48	=48	=48	=48
2.BB-/	2.D/	1.f	0r
4C/	4E/	.	.
2D\	4F/	.	.
.	4G/	.	.
[2C/	[2A/	[2e-i\	.
=49	=49	=49	=49
2C/]	2A/]	4e-\]	1r
.	.	4d\	.
2BB-/	1G	2B-\	.
1AA	.	1c	1a
.	2F#i/	.	.
=50	=50	=50	=50
1GG	0G	2.B-\	[0b-
.	.	4c\	.
2GG/	.	2d\	.
2GG/	.	[2e-i\	.
=51	=51	=51	=51
1GG	0r	2e-\]	0b-]
.	.	4d\	.
.	.	4c\	.
1G	.	2d\	.
.	.	2e-i\	.
=52	=52	=52	=52
1F	0r	2c\	1a
.	.	2d\	.
1E	.	2B-\	1g
.	.	2c\	.
=53	=53	=53	=53
1G	0r	2d\	1b-
.	.	2e\	.
2F\	.	2f\	2a/
2E\	.	[2g\	2g/
=54	=54	=54	=54
1D	0r	2g\]	1a
.	.	2f#i\	.
2.E\	.	2.g\	2g/
.	.	.	[2b-\
4F\	.	4fni\	.
=55	=55	=55	=55
2G\	0r	2d\	2b-\]
2D\	.	2f\	2a/
2E\	.	2e\	2g/
2F\	.	[2d\	2f/
=56	=56	=56	=56
2BB-/	0r	2d\]	1b-
2D\	.	4c\	.
.	.	4B-\	.
2.C/	.	1c	2a/
.	.	.	[2g/
4D\	.	.	.
=57	=57	=57	=57
2E\	0r	2B-\	2g/]
2F\	.	2A/	1f
1C	.	1G	.
.	.	.	2e/
=58	=58	=58	=58
2r	1.F	0r	1f
1D	.	.	.
.	.	.	1r
4C/	2G/	.	.
4BB-/	.	.	.
=59	=59	=59	=59
1D	1A	0r	1.f
1BB-	1B-	.	.
.	.	.	2g/
=60	=60	=60	=60
1F	2c\	0r	1a
.	1d	.	.
1G	.	.	1b-
.	2e\	.	.
=61	=61	=61	=61
2F\	2f\	0r	2a/
2G\	1d	.	1b-
2GG/	.	.	.
[2G\	4c\	.	4a/
.	4B-\	.	4g/
=62	=62	=62	=62
2G\]	1A	0r	1cc
2F\	.	.	.
2G\	2G/	.	2b-\
[2F\	[2c\	.	[2a/
=63	=63	=63	=63
2F\]	4c\]	0r	2a/]
.	4B-\	.	.
2E\	2G/	.	1g
1D	1A	.	.
.	.	.	2f#i/
=64	=64	=64	=64
1E	0G	1e	1g
1C	.	2e\	1r
.	.	2e\	.
=65	=65	=65	=65
4D\	1F	1.f	0r
4E\	.	.	.
4F\	.	.	.
4G\	.	.	.
2A\	1r	.	.
[2B-\	.	4e\	.
.	.	4d\	.
=66	=66	=66	=66
2B-\]	0r	2g\	0r
2A\	.	2f\	.
2G\	.	2e\	.
2F\	.	[2d\	.
=67	=67	=67	=67
2G\	0r	2d\]	0r
4F\	.	1c	.
4E\	.	.	.
1D	.	.	.
.	.	2Bni\	.
=68	=68	=68	=68
1C	2A/	1c	1a
.	1c	.	.
1F	.	1r	2a/
.	4B-\	.	2a/
.	4A/	.	.
=69	=69	=69	=69
2.G\	2G/	0r	1.b-
.	1B-	.	.
4F\	.	.	.
2D\	.	.	.
2E\	2c\	.	4a/
.	.	.	4g/
=70	=70	=70	=70
1D	1d	0r	2f/
.	.	.	1b-
1r	2B-\	.	.
.	[2c\	.	2a/
=71	=71	=71	=71
1r	4c\]	0r	2g/
.	4B-\	.	.
.	1d	.	2f/
1AA	.	.	1e
.	2c#i\	.	.
=72	=72	=72	=72
2BB-/	2d\	0r	2.d/
1D	1f	.	.
.	.	.	4e/
.	.	.	4f/
.	.	.	4g/
4C/	4e\	.	[2a/
4BB-/	4d\	.	.
=73	=73	=73	=73
2AA/	2c\	0r	2a/]
2BB-/	2B-\	.	1g
2C/	1A	.	.
2D\	.	.	2f#i/
=74	=74	=74	=74
2GG/	1G	1d	1g
2G\	.	.	.
2E\	1r	2c\	1r
[2F\	.	[2d\	.
=75	=75	=75	=75
2F\]	0r	2d\]	0r
4E\	.	2c\	.
4D\	.	.	.
2.C/	.	4A/	.
.	.	4G/	.
.	.	[2c\	.
4D\	.	.	.
=76	=76	=76	=76
2E-i\	0r	2c\]	0r
2D\	.	1B-	.
1C	.	.	.
.	.	2A/	.
=77	=77	=77	=77
1BB-	0r	1.B-	1.dd
1GG	.	.	.
.	.	2c\	2cc\
=78	=78	=78	=78
1G	0r	2d\	1b-
.	.	2e\	.
2F\	.	2f\	2a/
[2G\	.	2d\	[2b-\
=79	=79	=79	=79
2G\]	0r	2e\	2b-\]
2F\	.	2f\	2a/
1G	.	2e\	2g/
.	.	[2d\	2b-\
=80	=80	=80	=80
1F	0r	2d\]	1a
.	.	2c\	.
2G\	.	2B-\	2g/
2D\	.	2A/	2f/
=81	=81	=81	=81
2E-\	0r	2G/	2b-\
2F\	.	2A/	1a
2D\	.	2F/	.
2E-i\	.	2G/	2g/
=82	=82	=82	=82
2D\	1r	1A	2f/
2C/	.	.	2e/
2BB-/	2G/	1r	2b-\
2C/	2A/	.	[2a/
=83	=83	=83	=83
2D\	2F/	0r	2a/]
2E-i\	2G/	.	2g/
2D\	1A	.	2f/
2C/	.	.	2e/
=84	=84	=84	=84
2.BB-/	2B-\	0r	2.d/
.	2.d\	.	.
4C/	.	.	4e/
2D\	.	.	2f/
.	4c\	.	.
2E\	2B-\	.	2g/
=85	=85	=85	=85
2F\	2A/	1r	2a/
2G\	2G/	.	2b-\
[1A	2.F/	[1c	2cc\
.	.	.	[2c/
.	4G/	.	.
=86	=86	=86	=86
2A\]	4A/	2c\]	4c/]
.	4B-\	.	4d/
4G\	1.c	2d\	4e/
4F\	.	.	4f/
1E	.	1e	4g/
.	.	.	4a/
.	.	.	4b-\
.	.	.	4cc\
=87	=87	=87	=87
2D\	2d\	2f\	2a/
2GG/	2B-\	2d\	2b-\
2AA/	2c\	2c\	2a/
2BB-/	2G/	2d\	[2g/
=88	=88	=88	=88
2C/	1A	2c\	2g/]
2D\	.	2F/	2f/
2E\	2G/	2c\	2g/
2F\	2F/	2A/	2a/
=89	=89	=89	=89
[0BB-l	1G	[0B-l	[0dl
.	2F/	.	.
.	[2G/	.	.
=90	=90	=90	=90
0BB-_	2G/]	0B-_	0d_
.	4F/	.	.
.	4E/	.	.
.	1G	.	.
=91	=91	=91	=91
0BB-]	0Fl	0B-]	0d]
!!LO:LB:i:g=z
=92||	=92||	=92||	=92||
*>C	*>C	*>C	*>C
*clefF4	*clefGv2	*clefGv2	*clefG2
*k[b-]	*k[b-]	*k[b-]	*k[b-]
*M2/1	*M2/1	*M2/1	*M2/1
*met(C|)	*met(C|)	*met(C|)	*met(C|)
!!section: Osanna
!!!OMD: Osanna
[0D	[0F	[0d	[0a
=93	=93	=93	=93
0D]	0F]	0d]	0a]
=94	=94	=94	=94
[0GG	[0G	0d	0b-
=95	=95	=95	=95
0GG]	0G]	0e	1.b-
.	.	.	4a/
.	.	.	4g/
=96	=96	=96	=96
[0D	[0F	1.f	1a
.	.	.	[1f
.	.	[2d\	.
=97	=97	=97	=97
0D]	0F]	2d\]	2f/]
.	.	4c\	2g/
.	.	4B-\	.
.	.	2A/	1a
.	.	2F/	.
=98	=98	=98	=98
1.GG	[0B-	2G/	1.g
.	.	1B-	.
2AA/	.	2c\	4f/
.	.	.	4e/
=99	=99	=99	=99
2BB-/	1B-]	1d	2d/
1D	.	.	1f
.	1A	1r	.
2C/	.	.	2e/
=100	=100	=100	=100
2.BB-/	1B-	1d	2d/
.	.	.	2g/
4C/	.	.	.
2D\	2A/	1d	2f/
[2GG/	[2B-\	.	2d/
=101	=101	=101	=101
2GG/]	2B-\]	2B-\	2dd\
2AA/	2A/	2c\	2cc\
2GG/	1B-	2.d\	2b-\
2G\	.	.	[2cc\
.	.	4e\	.
=102	=102	=102	=102
2F\	2A/	2f\	2cc\]
2G\	2B-\	2e\	1b-
1F	1c	1f	.
.	.	.	2a/
=103	=103	=103	=103
1.BB-	[0B-	[0d	0b-
[2GG/	.	.	.
=104	=104	=104	=104
4GG/]	0B-]	0d]	1r
4AA/	.	.	.
4BB-/	.	.	.
4C/	.	.	.
1D	.	.	[1b-
=105	=105	=105	=105
0E	0r	1G	2b-\]
.	.	.	2a/
.	.	1E	1g
=106	=106	=106	=106
0D	0B-	1F	1.f
.	.	2r	.
.	.	2F/	4e/
.	.	.	4d/
=107	=107	=107	=107
2C/	1.c	0G	2.e/
2D\	.	.	.
.	.	.	4f/
1E	.	.	1g
.	2B-\	.	.
=108	=108	=108	=108
1F	1A	1c	1a
2G\	1G	[1B-	2b-\
[2E-i\	.	.	[2g/
=109	=109	=109	=109
2E-\]	0B-	2B-\]	2g/]
4D\	.	2c\	4f/
4C/	.	.	4e/
1BB-	.	1d	4g/
.	.	.	4f/
.	.	.	4e/
.	.	.	4d/
=110	=110	=110	=110
2C/	1A	2e-i\	2c/
2AA/	.	2c\	2f/
2BB-/	1G	1d	2d/
2GG/	.	.	[2g/
=111	=111	=111	=111
1D	0A	2r	2g/]
.	.	2.d\	4f#i/
.	.	.	4e/
1D	.	.	1f#i
.	.	4c\	.
.	.	2A/	.
=112	=112	=112	=112
2r	1G	2B-\	0g
2.GG/	.	1B-	.
.	1r	.	.
4AA/	.	.	.
4BB-/	.	4A/	.
4C/	.	4G/	.
=113	=113	=113	=113
2.D\	1.A	2F/	0r
.	.	1f	.
4E\	.	.	.
2F\	.	.	.
[2G\	[2B-\	[2e\	.
=114	=114	=114	=114
2G\]	2B-\]	2e\]	0r
4F\	4A/	4d\	.
4E\	4G/	4c\	.
2F\	2A/	2d\	.
[2E-\	[2G/	[2c\	.
=115	=115	=115	=115
4E-\]	2G/]	2c\]	1r
4D\	.	.	.
2BB-/	1F	1B-	.
1C	.	.	1e
.	2E/	2A/	.
=116	=116	=116	=116
0BB-	0F	2.B-\	2d/
.	.	.	1f
.	.	4c\	.
.	.	1d	.
.	.	.	4e/
.	.	.	4d/
=117	=117	=117	=117
[0C	1r	1e-i	2c/
.	.	.	1cc
.	[1A	2e-i\	.
.	.	[2c\	4b-\
.	.	.	4a/
=118	=118	=118	=118
1C]	2A/]	2c\]	1g
.	2B-\	4B-\	.
.	.	4A/	.
1E-i	1c	1G	1g
=119	=119	=119	=119
2.D\	[0d	2A/	2.f/
.	.	2B-\	.
4E\	.	.	4g/
2F\	.	2A/	2a/
2G\	.	2G/	2b-\
=120	=120	=120	=120
2F\	0d]	2A/	2a/
1G	.	1G	1b-
[2F\	.	2A/	[2a/
=121	=121	=121	=121
2F\]	0c	1F	2a/]
4E\	.	.	4g/
4D\	.	.	4f/
1C	.	2G/	1e
.	.	2A/	.
=122	=122	=122	=122
4BB-/	0d	2B-\	4d/
4C/	.	.	4e/
4D\	.	1f	4f/
4E\	.	.	4g/
2F\	.	.	2a/
2G\	.	2d\	2b-\
=123	=123	=123	=123
2E\	1c	2e\	2g/
1F	.	2c\	1a
.	1d	2f\	.
2G\	.	2d\	2b-\
=124	=124	=124	=124
2C/	2c\	2e\	2cc\
2G\	2.d\	2d\	1b-
1D	.	1f	.
.	4c\	.	.
.	2B-\	.	4a/
.	.	.	4g/
=125	=125	=125	=125
2r	1d	1f	2f/
2BB-/	.	.	1b-
1F	1c	1f	.
.	.	.	2a/
=126	=126	=126	=126
1.G	[0B-l	1.d	[0b-l
4F\	.	2e\	.
4E\	.	.	.
=127	=127	=127	=127
2D\	0B-_	2f\	0b-_
1E-i	.	1g	.
4D\	.	4f\	.
4C/	.	4e\	.
=128	=128	=128	=128
*	*	*^	*
0BB-l	0B-]	0dl\	0fl/	0b-]
*	*	*v	*v	*
!LO:TX:rj:i:t=fine	!	!	!
!!LO:LB:i:g=z
=129||	=129||	=129||	=129||
*>D	*>D	*>D	*>D
*clefF4	*clefGv2	*clefGv2	*clefG2
*k[b-]	*k[b-]	*k[b-]	*k[b-]
*M2/1	*M2/1	*M2/1	*M2/1
*met(C|)	*met(C|)	*met(C|)	*met(C|)
!!section: Benedictus
!!!OMD: Benedictus
0r	1.F	0r	0r
.	2G/	.	.
=130	=130	=130	=130
0r	2A/	0r	[0f
.	1B-	.	.
.	4A/	.	.
.	4G/	.	.
=131	=131	=131	=131
0r	2A/	0r	1f]
.	2.B-\	.	.
.	.	.	1g
.	4A/	.	.
.	[2c\	.	.
=132	=132	=132	=132
1r	4c\]	0r	0a
.	4B-\	.	.
.	4A/	.	.
.	4G/	.	.
1D	1F	.	.
=133	=133	=133	=133
2GG/	0r	4G/	0b-
.	.	4A/	.
1G	.	4B-\	.
.	.	4c\	.
.	.	2d\	.
2E\	.	2e\	.
=134	=134	=134	=134
2F\	0r	2c\	1a
2D\	.	2d\	.
1E-	.	2B-\	[1g
.	.	[2c\	.
=135	=135	=135	=135
1E-i	0r	4c\]	1g]
.	.	4B-\	.
.	.	4A/	.
.	.	4G/	.
1D	.	2d\	1f
.	.	[2B-\	.
=136	=136	=136	=136
1E-i	0r	4B-\]	2.g/
.	.	4A/	.
.	.	2.c\	.
.	.	.	4f/
2C/	.	.	2g/
.	.	4B-\	.
[2F\	.	4A/	[2a/
.	.	4G/	.
=137	=137	=137	=137
2F\]	1c	2F/	2a/]
2E-i\	.	2G/	1g
1D	[1d	1A	.
.	.	.	2f#i/
=138	=138	=138	=138
1.GG	2d\]	0G	1g
.	1B-	.	.
.	.	.	1r
2AA/	4A/	.	.
.	4G/	.	.
=139	=139	=139	=139
1BB-	2F/	0r	0r
.	1G	.	.
1C	.	.	.
.	[2A/	.	.
=140	=140	=140	=140
1D	2A/]	0r	0r
.	2B-\	.	.
2C/	2c\	.	.
2D\	[2B-\	.	.
=141	=141	=141	=141
1GG	4B-\]	1r	0r
.	4A/	.	.
.	1G	.	.
1AA	.	1c	.
.	2F#i/	.	.
=142	=142	=142	=142
1GG	0G	2.B-\	0r
.	.	4c\	.
2r	.	2d\	.
[2G\	.	[2e-i\	.
=143	=143	=143	=143
2G\]	0r	2e-\]	0r
4F\	.	4d\	.
4E\	.	4c\	.
2D\	.	2B-\	.
2C/	.	[2e-i\	.
=144	=144	=144	=144
1D	0r	4e-\]	0r
.	.	4d\	.
.	.	1d	.
1E-i	.	.	.
.	.	2c\	.
=145	=145	=145	=145
1r	2r	2d\	[0a
.	1d	2.f\	.
2r	.	.	.
.	.	4g\	.
[2D\	4c\	[2a\	.
.	4B-\	.	.
=146	=146	=146	=146
2D\]	0A	4a\]	0a]
.	.	4g\	.
4C/	.	4f\	.
4BB-/	.	4e\	.
2AA/	.	1f	.
2D\	.	.	.
=147	=147	=147	=147
2GG/	0G	1g	0b-
1G	.	.	.
.	.	2r	.
4F\	.	2g\	.
4E\	.	.	.
=148	=148	=148	=148
1F	1A	2c\	1a
.	.	2f\	.
2r	1B-	1d	1g
[2G\	.	.	.
=149	=149	=149	=149
2G\]	1G	2.B-\	1b-
4F\	.	.	.
4E\	.	4c\	.
2F\	2A/	2d\	2a/
[2E-\	[2B-\	[2e-\	[2g/
=150	=150	=150	=150
2E-\]	4B-\]	4e-\]	2g/]
.	4A/	4d\	.
2D\	2F/	2B-\	1f
1C	1G	1c	.
.	.	.	2e/
=151	=151	=151	=151
2D\	2r	2.A/	0f
4C/	2.F/	.	.
4BB-/	.	4B-\	.
1AA	.	1c	.
.	4G/	.	.
.	2A/	.	.
=152	=152	=152	=152
1GG	1.B-	1.d	1r
[1D	.	.	[1f
.	4A/	4c\	.
.	4G/	4B-\	.
=153	=153	=153	=153
2D\]	1B-	1d	2f/]
2E\	.	.	2g/
1F	1A	1c	1a
=154	=154	=154	=154
1G	1G	4B-\	1.b-
.	.	4G/	.
.	.	1g	.
2r	1r	.	.
[2GG/	.	4f\	4a/
.	.	4e\	4g/
=155	=155	=155	=155
4GG/]	0r	2d\	1b-
4AA/	.	.	.
4BB-/	.	1g	.
4GG/	.	.	.
1D	.	.	1a
.	.	2f\	.
=156	=156	=156	=156
2BB-/	2r	1g	1g
2C/	2.c\	.	.
1AA	.	2c\	2r
.	4B-\	.	.
.	4A/	[2f\	[2a/
.	4G/	.	.
=157	=157	=157	=157
1AA	1F	4f\]	4a/]
.	.	4e\	4g/
.	.	4d\	2a/
.	.	4c\	.
1GG	2G/	2B-\	1b-
.	[2d\	2G/	.
=158	=158	=158	=158
1F	2d\]	1A	1a
.	2c\	.	.
1BB-	2d\	1B-	2f/
.	[2B-\	.	[2g/
=159	=159	=159	=159
1E-i	2B-\]	1.G	2g/]
.	4A/	.	4f/
.	4G/	.	4e/
2r	[1F	.	2d/
[2F\	.	[2A/	[2c/
=160	=160	=160	=160
4F\]	1F]	2A/]	2c/]
4E\	.	.	.
2D\	.	2B-\	1f
1C	1G	1c	.
.	.	.	2e/
=161	=161	=161	=161
*M3/1	*M3/1	*M3/1	*M3/1
*met(3)	*met(3)	*met(3)	*met(3)
1.D	0F	0A	0f
2C/	.	.	.
1BB-	1r	1G	1r
=162	=162	=162	=162
1AA	0F	0A	0.r
1D	.	.	.
1GG	1G	1B-	.
=163	=163	=163	=163
0D	1F	1A	0f
.	1A	1d	.
1E	1G	1c	1g
=164	=164	=164	=164
1.D	1A	1d	1.f
.	0d	0f	.
2E\	.	.	2g/
1F	.	.	1a
=165	=165	=165	=165
1G	1B-	1e	0b-
0F	0c	0f	.
.	.	.	1a
=166	=166	=166	=166
[0.G	0.B-	0.d	0b-
.	.	.	1r
=167	=167	=167	=167
1G]	0.d	0B-	0b-
0G	.	.	.
.	.	1B-	1b-
=168	=168	=168	=168
0C	0c	0e-i	1.cc
.	.	.	2b-\
1C	1c	1e-i	2a/
.	.	.	2g/
=169	=169	=169	=169
1G	1B-	1d	1b-
0F	0c	1.f	1.a
.	.	2e\	2g/
=170	=170	=170	=170
1G	1B-	0d	0g
0D	0A	.	.
.	.	1d	1f#i
=171	=171	=171	=171
*M2/1	*M2/1	*M2/1	*M2/1
*met(C|)	*met(C|)	*met(C|)	*met(C|)
1E	0G	1B-	1g
1E	.	1c	1r
=172	=172	=172	=172
1D	1r	2d\	1.a
.	.	2.A/	.
1C	1c	.	.
.	.	4B-\	.
.	.	2c\	4g/
.	.	.	4f/
=173	=173	=173	=173
2r	1B-	2G/	1g
2G\	.	1d	.
1D	1A	.	1f
.	.	2d\	.
=174	=174	=174	=174
2GG/	1G	1B-	1.b-
1G	.	.	.
.	1d	2G/	.
4F\	.	2B-\	4a/
4E\	.	.	4g/
=175	=175	=175	=175
1F	1c	1A	1a
2G\	1B-	2d\	1g
2E-i\	.	2e-\	.
=176	=176	=176	=176
2F\	1A	2c\	1.cc
4E-i\	.	2.A/	.
4D\	.	.	.
1C	1e-i	.	.
.	.	4B-\	.
.	.	2c\	4b-\
.	.	.	4a/
=177	=177	=177	=177
2r	1d	2d\	1b-
2G\	.	2g\	.
2A\	1c	2e\	1a
2F\	.	2f\	.
=178	=178	=178	=178
2G\	1B-	1d	1.dd
4F\	.	.	.
4E\	.	.	.
1D	1f	1d	.
.	.	.	4cc\
.	.	.	4b-\
=179	=179	=179	=179
2C/	1e	2e\	1cc
2AA/	.	2c\	.
1BB-	1d	2d\	1b-
.	.	2B-\	.
=180	=180	=180	=180
2r	2B-\	2d\	2g/
2AA/	2c\	2c\	1a
1D	2A/	2r	.
.	[2d\	[2A/	4g/
.	.	.	4f/
=181	=181	=181	=181
1AA	2d\]	2A/]	1e
.	2c#i\	2G/	.
2BB-/	1d	2F/	2d/
[2GG/	.	[2B-\	[2dd\
=182	=182	=182	=182
4GG/]	2r	4B-\]	2dd\]
4AA/	.	4G/	.
4BB-/	2G/	1g	4cc\
4GG/	.	.	4b-\
1D	4A/	.	1a
.	4B-\	.	.
.	4c\	2f\	.
.	4d\	.	.
=183	=183	=183	=183
1GG	1B-	2d\	2r
.	.	1g	2g/
1D	1A	.	4a/
.	.	.	4b-\
.	.	2f\	4cc\
.	.	.	4dd\
=184	=184	=184	=184
2GG/	2G/	2g\	2b-\
2D\	2F/	2d\	1a
1E-	1G	2B-\	.
.	.	2c\	[2g/
=185	=185	=185	=185
1D	1A	1d	2g/]
.	.	.	2f#i/
1GGl	1Gl	1dl	1gl
!!LO:TX:i:Y=40:rj:t=Osanna ut supra
==	==	==	==
*-	*-	*-	*-
!!!RDF**kern: l=long note in original notation
!!!RDF**kern: i=editorial accidental
!!!RDF**kern: V=start of tuplet marker
!!!RDF**kern: Z=end of tuplet marker
!!!ENC:	Jesse Rodin; Victoria Chang 2012/02/03
!!!END:	2012/02/03/
!!!EED:	Jesse Rodin
!!!EEV:	2012/06/25/
!!attribution-level@Jos: 4 (questionable)
!!!ONB:	Translated from MusicXML and edited on 2012/06/25/ by Craig Sapp
!!muse2ps: T^@{OPR}^u^@{ONM}{. }@{OTL}^C^@{COA}?\n@{SCT}^i2I150v85,85,85,150Q16c125
